X: 21951
T: Kitty In The Lane
R: reel
M: 4/4
K: Dmixolydian
|:dcAB c3A|GEE2 c3d|dcAB cdcA|GEcE EDD2|
dcAB c3A|GEE2 B/c/ded|dcAB cded|cAGE EDD2:|
|:A2dg f2ed|cdef gfge|Addg f2ed|B/c/deg fddB|
Addg f2ed|B/c/def g2e/f/g|afge fded|cAGE EDD2:|

